!!!OTL: 505. Allerschoenster Engel.
!!!ARE: Europa, Mitteleuropa, Deutschland, Harz
!!!SCT: E0505
!!!TXL: @@DE
!!!YEM: Copyright 1995, estate of Helmut Schaffrath.
**kern	**text
*ICvox	*
*M2/4	*
*k[]	*
*C:	*
=1	=1
!LO:TX:a:t=Fröhlich.	!
!LO:TX:a:t=Berglied vom Harʒ, vor 1777.	!
{8cc	Al-
8cc	-ler-
8b	-ſchön-
8b	-ſter
=2	=2
8cc	En-
8cc	.
4g}	-gel,
=3	=3
{8cc	al-
8cc	-ler-
8b	-ſchön-
8dd	-ſtes
=4	=4
4cc	Kind,
4r}	.
=5	=5
{8cc	Al-
8cc	-ler-
8b	-ſchön-
8b	-ſter
=6	=6
8cc	En-
8cc	.
4g}	-gel,
=7	=7
{8cc	al-
8cc	-ler-
8b	-ſchön-
8dd	-ſtes
=8	=8
4cc	Kind,
8r}	.
{8g	komm
=9	=9
8a	ei-
8a	-le
8a	dich
8a	und
=10	=10
8g	küſ-
8g	-ſe
8g}	mich,
{8g	und
=11	=11
4ff	ma-
[8ee	-che
8ee]	geſchwind!
=12	=12
4.dd;}	.
!LO:TX:a:t=Refr.	!
{8g	All
=13	=13
4g	da-
8g	-rum
8b-/	ſo
=14	=14
8a	bitt
8cc	ich
4f}	dich,
=15	=15
{8a	komm,
8a	mein
8a	Schatʒ,
8cc	und
=16	=16
8b-	küſ-
8dd	-ſe
8g}	mich,
{8g	mein
=17	=17
8.cc	al-
16b-	-ler-
8.cc	-ſchön-
16b-	-ſter
=18	=18
4.cc}	Schatʒ,
{8e	ver-
=19	=19
4f	-giß
4g	mein
=20	=20
4c	nicht!
4r}	.
==	==
!!!AGN: Liebes - Lied
!!!ONB: ESAC (Essen Associative Code) Database: ERK1
!!!AMT: simple duple
!!!AIN: vox
!!!EED: Helmut Schaffrath
!!!EEV: 1.0
!!!GTL: Liebeslieder [Neuere (aus dem 18. bis 19. Jahrh.) - Liebeslust]
!!!URL-scan: https://rosdok.uni-rostock.de/mcrviewer/recordIdentifier/rosdok_ppn745177662/iview2/phys_0328.iview2?x=-167.80707726282276&y=1687.7334543990437&scale=0.5707458166514069&rotation=0&layout=singlePageLayout
!!!ENC: Anna Maria Matuszewska
!!!EEV: 2024/10/12
*-	*-
